packages/ffe-icons/icons/filled/md/tibia.svg

<svg xmlns="http://www.w3.org/2000/svg" height="24" viewBox="0 -960 960 960" width="24"><path d="m380.001-600.462-90.769-90.77q-14.308-14.307-21.769-32.269-7.462-17.961-7.462-37.499 0-41.538 28.538-70.268 28.539-28.731 69.461-28.731h244q40.538 0 68.768 28.731 28.231 28.73 28.231 69.268 0 20.769-8.27 39.422-8.269 18.654-22.576 33.346l-88.154 87.77v238.54l90.154 89.769q13.923 14.308 21.884 32.654 7.962 18.345 7.962 38.499 0 42.538-29.231 71.768-29.23 29.231-71.768 29.231-20.154 0-38.307-7.654-18.154-7.654-32.461-21.577-9.693-10.308-22.039-15.539-12.347-5.23-26.193-5.23-13.846 0-26.001 5.538-12.154 5.539-21.846 15.231-14.308 13.923-32.654 21.577-18.345 7.654-38.499 7.654-42.538 0-71.576-29.231-29.038-29.23-29.423-71.768 0-20.154 7.462-38.499 7.461-18.346 21.769-32.269l90.769-89.154v-238.54Z"/></svg>

<svg xmlns="http://www.w3.org/2000/svg" height="24" viewBox="0 -960 960 960" width="24"><path d="m380-600.46-90.77-90.77q-14.31-14.31-21.77-32.27Q260-741.46 260-761q0-41.54 28.54-70.27Q317.08-860 358-860h244q40.54 0 68.77 28.73Q699-802.54 699-762q0 20.77-8.27 39.42-8.27 18.66-22.58 33.35L580-601.46v238.54l90.15 89.77q13.93 14.3 21.89 32.65Q700-222.15 700-202q0 42.54-29.23 71.77Q641.54-101 599-101q-20.15 0-38.31-7.66-18.15-7.65-32.46-21.57-9.69-10.31-22.04-15.54Q493.85-151 480-151q-13.85 0-26 5.54t-21.85 15.23q-14.3 13.92-32.65 21.57Q381.15-101 361-101q-42.54 0-71.58-29.23Q260.39-159.46 260-202q0-20.15 7.46-38.5t21.77-32.27L380-361.92v-238.54Z"/></svg>
